src/assets/img/edit.svg

<svg width="24" height="24" viewBox="0 0 24 24" fill="none" xmlns="http://www.w3.org/2000/svg">
<path d="M21.4611 0.743754C20.4694 -0.247918 18.8615 -0.247918 17.8698 0.743754L17.2014 1.41212C17.1041 1.5094 17.027 1.62488 16.9743 1.75198C16.9217 1.87908 16.8946 2.0153 16.8946 2.15287C16.8946 2.29044 16.9217 2.42667 16.9743 2.55377C17.027 2.68087 17.1041 2.79636 17.2014 2.89363L20.4397 6.13194C20.537 6.22922 20.6525 6.30638 20.7796 6.35903C20.9067 6.41167 21.0429 6.43877 21.1805 6.43877C21.318 6.43877 21.4543 6.41167 21.5813 6.35903C21.7084 6.30638 21.8239 6.22922 21.9212 6.13194L22.5896 5.46358C23.5813 4.47183 23.5813 2.86394 22.5896 1.87218L21.4611 0.743754ZM14.2987 4.31483L0.468493 18.145C0.168537 18.445 1.75e-05 18.8519 0 19.2761V22.6707C2.91667e-05 23.0367 0.296665 23.3333 0.662584 23.3333H4.05724C4.48146 23.3333 4.88832 23.1648 5.18831 22.8648L19.0185 9.03465C19.1746 8.87854 19.2623 8.66681 19.2623 8.44604C19.2623 8.22527 19.1746 8.01354 19.0185 7.85742L15.4759 4.31483C15.3198 4.15872 15.1081 4.07102 14.8873 4.07102C14.6665 4.07102 14.4548 4.15872 14.2987 4.31483Z" fill="#D4DEE8"/>
</svg>

<svg xmlns="http://www.w3.org/2000/svg" width="24" height="24" fill="none" viewBox="0 0 24 24"><path fill="#d4dee8" d="M21.461.744a2.54 2.54 0 0 0-3.591 0l-.669.668a1.05 1.05 0 0 0 0 1.482l3.239 3.238a1.05 1.05 0 0 0 1.481 0l.669-.668a2.54 2.54 0 0 0 0-3.592zM14.3 4.314.469 18.146A1.6 1.6 0 0 0 0 19.276v3.395c0 .366.297.662.663.662h3.394a1.6 1.6 0 0 0 1.131-.468l13.83-13.83a.83.83 0 0 0 0-1.178l-3.542-3.542a.83.83 0 0 0-1.177 0"/></svg>
